scalable/actions/edit-link.svg

<svg height="16" width="16" xmlns="http://www.w3.org/2000/svg"><g fill="#bebebe"><path d="m15 9.01894c-.37391.83913-.85493 1.55706-1.4392 2.19862-5.83451-3.7461-10.39304-.84128-12.5608 2.78244 4.17462-3.84916 8.12128-3.8602 11.01265-1.41805-.64178.47066-1.35261.91252-2.14984 1.34487l4.86236-.0536z"/><path d="m10.99999 1v2h-1.99999v2h1.99999v2h2.00001v-2h2v-2h-2v-2z"/></g></svg>

<?xml version="1.0" encoding="UTF-8" standalone="no"?>
<svg
   xmlns:dc="http://purl.org/dc/elements/1.1/"
   xmlns:cc="http://creativecommons.org/ns#"
   xmlns:rdf="http://www.w3.org/1999/02/22-rdf-syntax-ns#"
   xmlns:svg="http://www.w3.org/2000/svg"
   xmlns="http://www.w3.org/2000/svg"
   xmlns:sodipodi="http://sodipodi.sourceforge.net/DTD/sodipodi-0.dtd"
   xmlns:inkscape="http://www.inkscape.org/namespaces/inkscape"
   height="16"
   width="16"
   version="1.1"
   id="svg8"
   sodipodi:docname="edit-link.svg"
   inkscape:version="0.92.2 2405546, 2018-03-11">
  <metadata
     id="metadata14">
    <rdf:RDF>
      <cc:Work
         rdf:about="">
        <dc:format>image/svg+xml</dc:format>
        <dc:type
           rdf:resource="http://purl.org/dc/dcmitype/StillImage" />
      </cc:Work>
    </rdf:RDF>
  </metadata>
  <defs
     id="defs12" />
  <sodipodi:namedview
     pagecolor="#ffffff"
     bordercolor="#666666"
     borderopacity="1"
     objecttolerance="10"
     gridtolerance="10"
     guidetolerance="10"
     inkscape:pageopacity="0"
     inkscape:pageshadow="2"
     inkscape:window-width="960"
     inkscape:window-height="1138"
     id="namedview10"
     showgrid="false"
     inkscape:zoom="22.627417"
     inkscape:cx="12.311491"
     inkscape:cy="15.199578"
     inkscape:window-x="1920"
     inkscape:window-y="38"
     inkscape:window-maximized="0"
     inkscape:current-layer="svg8" />
  <path
     style="fill:#bebebe"
     inkscape:connector-curvature="0"
     id="path4"
     d="M 15,9.01894 C 14.62609,9.85807 14.14507,10.576 13.5608,11.21756 7.72629,7.47146 3.16776,10.37628 1,14 c 4.17462,-3.84916 8.12128,-3.8602 11.01265,-1.41805 -0.64178,0.47066 -1.35261,0.91252 -2.14984,1.34487 l 4.86236,-0.0536 z" />
  <path
     style="fill:#bebebe"
     inkscape:connector-curvature="0"
     d="M 10.99999,1 V 3 H 9 v 2 h 1.99999 V 7 H 13 V 5 h 2 V 3 H 13 V 1 Z"
     id="path814"
     sodipodi:nodetypes="ccccccccccccc" />
</svg>
